fantasticon/icons/arrow-down.svg

<svg width="24" height="24" viewBox="0 0 24 24" fill="none" xmlns="http://www.w3.org/2000/svg">
<path d="M18.03 8.62999C17.65 8.27999 17.06 8.27999 16.67 8.62999L11.99 12.95L7.30999 8.62999C6.92999 8.27999 6.33999 8.27999 5.94999 8.62999L5.77999 8.78999C5.34999 9.18999 5.34999 9.85999 5.77999 10.26L11.31 15.38C11.69 15.73 12.29 15.73 12.67 15.38L18.2 10.26C18.63 9.85999 18.63 9.18999 18.2 8.78999L18.03 8.62999Z" fill="black"/>
</svg>

<svg viewBox="0 0 24 24" xmlns="http://www.w3.org/2000/svg"><path d="m18.03 8.63c-.38-.35-.97-.35-1.36 0l-4.68 4.32-4.68-4.32c-.38-.35-.97-.35-1.36 0l-.17.16c-.43.4-.43 1.07 0 1.47l5.53 5.12c.38.35.98.35 1.36 0l5.53-5.12c.43-.4.43-1.07 0-1.47z"/></svg>
